dist/img/icons/clock.svg

<?xml version="1.0"?>
<svg xmlns="http://www.w3.org/2000/svg" xmlns:xlink="http://www.w3.org/1999/xlink" xmlns:svgjs="http://svgjs.com/svgjs" version="1.1" width="512" height="512" x="0" y="0" viewBox="0 0 512 512" style="enable-background:new 0 0 512 512" xml:space="preserve" class=""><g><path xmlns="http://www.w3.org/2000/svg" d="m256 512c-141.164062 0-256-114.835938-256-256s114.835938-256 256-256 256 114.835938 256 256-114.835938 256-256 256zm0-480c-123.519531 0-224 100.480469-224 224s100.480469 224 224 224 224-100.480469 224-224-100.480469-224-224-224zm0 0" fill="#ffffff" data-original="#000000" style="" class=""/><path xmlns="http://www.w3.org/2000/svg" d="m368 394.667969c-4.097656 0-8.191406-1.558594-11.308594-4.695313l-112-112c-3.007812-3.007812-4.691406-7.082031-4.691406-11.304687v-149.335938c0-8.832031 7.167969-16 16-16s16 7.167969 16 16v142.699219l107.308594 107.308594c6.25 6.25 6.25 16.382812 0 22.632812-3.117188 3.136719-7.210938 4.695313-11.308594 4.695313zm0 0" fill="#ffffff" data-original="#000000" style="" class=""/></g></svg>

<svg xmlns="http://www.w3.org/2000/svg" width="512" height="512"><path xmlns="http://www.w3.org/2000/svg" d="M256 512C114.836 512 0 397.164 0 256S114.836 0 256 0s256 114.836 256 256-114.836 256-256 256zm0-480C132.48 32 32 132.48 32 256s100.48 224 224 224 224-100.48 224-224S379.52 32 256 32zm0 0" fill="#fff" data-original="#000000"/><path xmlns="http://www.w3.org/2000/svg" d="M368 394.668a15.879 15.879 0 01-11.309-4.695l-112-112A16.002 16.002 0 01240 266.668V117.332c0-8.832 7.168-16 16-16s16 7.168 16 16v142.7L379.309 367.34c6.25 6.25 6.25 16.383 0 22.633A15.879 15.879 0 01368 394.668zm0 0" fill="#fff" data-original="#000000"/></svg>
